X: 4
T: Zelda #4
C: Philippe Plard
R: jig
S: handout at NEFFA 2016 from Mark Vidor p.14 #2
N: also in Qu\'ebec City workshop, from Betsy Hooper
Z: 2016 John Chambers <jc:trillian.mit.edu>
M: 6/8
L: 1/8
K: Am
|:\
"Am"e2A e2A | "Dm"fed "Am"e3 |\
edc "E7"B2d |[1,3 dcB "Am"c2A :|[2,4 dcB "Am"A3 :|
|:\
"Am"ABc E2E | ABc "Dm"F2F |\
"Am"ABc "E7"B2d |[1,3 dcB "Am"c2A :|[2,4 dcB "Am"A3 :|
